X:407
T:Sitting On Top Of The World
C:John Moore
N:Transcribed by John Strong
R:bluegrass
L:1/8
Q:1/4=270
M:4/4
K:A
z2 EF AB cd | "A"ed ee e2 ef | (3=gfe =c^c e=c BF | A=c ^ce fe =c^c | A=G2G z2 E=F | 
"D"FA BA (3=cBA FB | Aa =ge d^d e=c | "A"BA =G^G A2 E=G | A=G AA AA EF | A2 EF A=G AG | 
=c^c A=G AG EG | ED =CE D^D ED | D^D =D=C DC A,=G, | A,B, CD EF A=c | "E"ce fe {=c}^cA FB | 
"A"A=c ^ce fe =c^c | AE FA E=C ^CE | A8 | 


